X:1
T:Langton, SM
T:Langton, SM
T:Charlotte Saint Streatfield, 1874
T:Public Domain Courtesy of the Cyber Hymnal™
C:Charlotte Saint Streatfield, 1874
Z:Public Domain
Z:Courtesy of the Cyber Hymnal™
%%score ( 1 2 ) 3
L:1/8
Q:1/4=125
M:3/4
K:Eb
V:1 treble 
V:2 treble 
V:3 bass 
V:1
 [EG]2 [EG]2 [EG]2 | [EB]4 [EA]2 | [EG]6- | [EG]6 | [B,E]2 [B,E]2 [B,E]2 | [DF]4 [DA]2 | [EA]6 | %7
 [EG]6 | [EG]2 [EG]2 [EG]2 | [EG]4 [EB]2 | [EB]4 [EA]2 | [EG]6 | [B,E]2 [B,E]2 [B,E]2 | %13
 [EG]4 [DF]2 | [DF]6 | E6 |] %16
V:2
 x6 | x6 | x6 | x6 | x6 | x6 | x6 | x6 | x6 | x6 | x6 | x6 | x6 | x6 | x6 | E6 |] %16
V:3
 [E,B,]2 [E,B,]2 [E,B,]2 | [E,C]4 [E,C]2 | [E,B,]6- | [E,B,]6 | [B,,G,]2 [B,,G,]2 [B,,G,]2 | %5
 [B,,B,]4 [B,,B,]2 | [E,B,]6- | [E,B,]6 | [E,B,]2 [E,B,]2 [E,B,]2 | [E,_D]4 [G,,D]2 | %10
 [A,,C]4 [C,C]2 | [E,B,]6 | [B,,G,]2 [B,,G,]2 [B,,G,]2 | [B,,B,]4 [B,,A,]2 | [B,,A,]6 | [E,G,]6 |] %16

